X: 1
T: For The Sake Of Old Decency
M: 4/4
L: 1/8
R: reel
K: Gmaj
|:d2BG AGEG|DGBG A2Bc|d2BG AGEG|1DGGF G2Bc:|2DGGF ~G3D||
|:~G3B d2Bd|eaag eggD|~G3B d2Bd|1egga bagD:|2egga bage|
